X:16
T:Speed the Plough
M:4/4
L:1/8
Z:abc2nwc
K:G
GABc dedB|dedB dedB|c2ec B2dB|ABcB A4|
GABc dedB|dedB dedB|c2ec B2dB|A2A2G4:|
|:g3g g2g2|g2fe d2B2|c2ec B2dB|ABcB A4|
g3g g2g2|g2fe d2B2|c2ec B2dB|A2A2G4:|
